X: 35097
T: Rolling Waves, The
R: jig
M: 6/8
K: Dmajor
FEF D2d cAG|F2D AGF GFE|FEF D2d cAG|~F2A ~G2B AFE|
FEF D2d cAG|F2D AGF GFE|FEF D2d cAG|~F2A ~G2B AFE||
D2d cAd cAG|F2d A2F GFE|D2d cAc ded|~F2A ~G2B AFE|
D2d cAd cAG|F2d A2F GFE|D2d cAd fed|~F2A ~G2B AFE||

